components/icon/svg/24/notification_error-triangle.svg

<?xml version="1.0" encoding="UTF-8"?>
<svg width="24px" height="24px" viewBox="0 0 24 24" version="1.1" xmlns="http://www.w3.org/2000/svg" xmlns:xlink="http://www.w3.org/1999/xlink">
    <!-- Generator: Sketch 64 (93537) - https://sketch.com -->
    <title>ic-db_notification_error-triangle_24</title>
    <desc>Created with Sketch.</desc>
    <g id="Symbols:Icon" stroke="none" stroke-width="1" fill="none" fill-rule="evenodd">
        <g id="24dp-Icon/Notification/Error-Triangle" fill="#282D37">
            <path d="M11.0140619,14.5573905 L11.0140619,9.926221 C11.0140619,9.33605397 11.4835944,8.877035 12.0469733,8.877035 C12.5790032,8.877035 13.0171868,9.33605397 13.0171868,9.926221 L13.0171868,14.5573905 C13.0171868,15.2131316 12.6103521,15.6721504 12.0469733,15.6721504 C11.4835944,15.6721504 11.0140619,15.1802921 11.0140619,14.5573905 Z M10.3098634,3.213069 L2.25039061,19.2131526 C2.09394656,19.5410232 2,19.8688937 2,20.1967643 C2,21.180376 2.75117183,22 3.84668082,22 L20.1533192,22 C21.2488282,22 22,21.180376 22,20.1967643 C22,19.9016283 21.9060534,19.5410232 21.7496094,19.2131526 L13.7214855,3.213069 C13.3,2.42617963 12.6573254,2 12,2 C11.3427747,2 10.74,2.42617963 10.3098634,3.213069 Z M12.2552086,4.206009 L19.9505377,19.5193133 C20.078142,19.7596017 19.9505377,20 19.663377,20 L4.31901075,20 C4.1276043,20 4,19.8626609 4,19.7253219 C4,19.6222627 4.03185003,19.5879828 4.03185003,19.5193133 L11.7447914,4.206009 C11.8085935,4.10294977 11.9043478,4 12,4 C12.0957543,4 12.2233586,4.10294977 12.2552086,4.206009 Z M11.9843756,18.8197079 C12.5477545,18.8197079 12.9859381,18.3606891 12.9859381,17.7705221 C12.9859381,17.180355 12.5477545,16.7213362 11.9843756,16.7213362 C11.4209968,16.7213362 10.9828132,17.180355 10.9828132,17.7705221 C10.9828132,18.3606891 11.4209968,18.8197079 11.9843756,18.8197079 Z" id="🎨-Color"></path>
        </g>
    </g>
</svg>

<svg width="24" height="24" xmlns="http://www.w3.org/2000/svg"><path d="M11.014 14.557v-4.13c0-.59.47-1.05 1.033-1.05.532 0 .97.46.97 1.05v4.13c0 .656-.407 1.115-.97 1.115s-1.033-.492-1.033-1.115zM10.31 4.213l-8.06 15c-.156.328-.25.656-.25.984C2 21.18 2.751 22 3.847 22h16.306C21.25 22 22 21.18 22 20.197c0-.295-.094-.656-.25-.984l-8.029-15C13.3 3.426 12.657 3 12 3s-1.26.426-1.69 1.213zm1.945.993l7.696 14.313c.127.24 0 .481-.288.481H4.32C4.128 20 4 19.863 4 19.725c0-.103.032-.137.032-.206l7.713-14.313c.064-.103.16-.206.255-.206.096 0 .223.103.255.206zm-.27 13.614c.563 0 1-.46 1-1.05 0-.59-.437-1.049-1-1.049-.564 0-1.002.46-1.002 1.05 0 .59.438 1.049 1.001 1.049z" fill="#282D37" fill-rule="evenodd"/></svg>
